!!!!SEGMENT: pl-wtm--r-1350--004_stefani-jozef--fraszka-muzyczna-mazur-chlopski.krn
!!!cenid: 18xx:1853
!!!COM: Stefani, Józef
!!!COM-rismID:
!!!CDT: 1800/04/16-1876/03/19
!!!CNT: Polish
!!!GTL: Fraszka muzyczna
!!!OTL: Mazur chłopski
!!!PDT:
!!!AGN: Secular
!!!SMS-siglum: PL-Wtm
!!!SMS-shelfmark: R 1350
!!!SMS-shelfwork: 004 G
!!!SMS-variant:
!!!SMS-altvar:
!!!NIFC-rismSourceID: 1001119464
!!!NIFC-islandoraID: pl-wtm:25286
!!!URL-pdf-islandora: https://repozytorium.nifc.pl/islandora/object/pl-wtm%3A25286/datastream/PDF/view
!!!URL-scan: https://polish.musicsources.pl/pl/lokalizacje/galeria/rekopisy/6202 @EN{Scan on Polish Music Herritage in Open Access Website} @PL{Skany w portalu Dziedzictwo Muzyki Polskiej w otwartym dostępie}
!!!ONB-nifc: UWAGA: skan 0004. Następna Fraszka: Allegro
!!!AIN: 1 forte
!!!key:
**kern	**kern	**dynam
*part1	*part1	*part1
*staff2	*staff1	*
*Iforte	*Iforte	*
*I"Fortepiano	*I"Fortepiano	*
*I'pf	*pf	*
*clefG2	*clefG2	*
*k[b-]	*k[b-]	*
*F:	*F:	*
*M3/4	*M3/4	*
*>[A,A]	*>[A,A]	*
=1	=1	=1
*>A	*>A	*>A>A
!	!LO:TX:a:i:t=Mazur chłopski	!LO:DY:b:t=forte.
8f|</L	8ff|>\L	f
8a|</J	8aa|>\J	.
4cc\	4ccc|>\	.
!	!LO:TX:b:i:t=ręce w miejscu	!
.	.	.
4a/	4aa|>\	.
=2	=2	=2
8f/L	8ff|>\L	.
8a/J	8aa|>\J	.
4g/	4gg|>\	.
4f/	4ff|>\	.
=3	=3	=3
8g/L	8gg|>\L	.
8b-/J	8bb-|>\J	.
4cc/	4ccc|>\	.
4b-/	4bb-|>\	.
!!LO:LB:g=original
=4	=4	=4
8g/L	8gg|>\L	.
8b-/J	8bb-|>\J	.
4a/	4aa|>\	.
4g/	4gg|>\	.
=5	=5	=5
8f/L	8ff|>\L	.
8a/J	8aa|>\J	.
4cc/	4ccc|>\	.
4a/	4aa|>\	.
=6	=6	=6
8f/L	8ff|>\L	.
8a/J	8aa|>\J	.
4g/	4gg|>\	.
4f/	4ff|>\	.
=7	=7	=7
8g/L	8gg|>\L	.
8b-/J	8bb-|>\J	.
4a/	4aa|>\	.
4g/	4gg|>\	.
!!LO:LB:g=original
=8	=8	=8
4f/	4ff\	.
4r	4r	.
4r	4r	.
=:|!	=:|!	=:|!
*-	*-	*-
!!!system-decoration: {(s1,s2)}
!!!RDF**kern: > = above
!!!RDF**kern: < = below
!!!RDF**kern: | = vertical stroke
!!!EED: Antoni Szymański
!!!EEV: 2021-05-04
!!!ENC: Andrzej Gręziak
!!!END: 2021-04-10
